!!!!SEGMENT: pl-sa--549-a-ix-29--024_anonim--rondo.krn
!!!cenid: 18xx:478
!!!COM: Anonim
!!!COM-rismID: pe30004985
!!!CDT:
!!!CNT:
!!!OTL: Rondo
!!!PDT:
!!!AGN: Secular; Rondo
!!!SMS-siglum: PL-SA
!!!SMS-shelfmark: 549/A IX 29
!!!SMS-shelfwork: 024 W
!!!SMS-variant:
!!!SMS-altvar:
!!!NIFC-rismSourceID: 1001068865
!!!NIFC-islandoraID:
!!!URL-pdf-islandora:
!!!URL-scan: https://bc.bdsandomierz.pl/dlibra/publication/1441/edition/1409/content @EN{Scan in the Sandomierz Diocese Digital Library} @PL{Skany w portalu Cyfrowa Biblioteka Diecezjalna w Sandomierzu}
!!!ONB-nifc: Str. 18 (s. 3) – str. 19 (s. 4)
!!!AIN: 1 piano
!!!key: c
**kern	**fing	**kern	**fing	**dynam
*part1	*	*part1	*	*part1
*staff2	*	*staff1	*	*
*I"Piano	*	*I"Piano	*	*
*Ipiano	*	*Ipiano	*	*
*ICklav	*	*ICklav	*	*
*IGsolo	*	*IGsolo	*	*
*>[A,B,A,B,C,D,D1,D,D2,E,E1,E,E2,B,A,B,C,F,G,G,H,B,A,B,C,I]	*>[A,B,A,B,C,D,D1,D,D2,E,E1,E,E2,B,A,B,C,F,G,G,H,B,A,B,C,I]	*>[A,B,A,B,C,D,D1,D,D2,E,E1,E,E2,B,A,B,C,F,G,G,H,B,A,B,C,I]	*>[A,B,A,B,C,D,D1,D,D2,E,E1,E,E2,B,A,B,C,F,G,G,H,B,A,B,C,I]	*>[A,B,A,B,C,D,D1,D,D2,E,E1,E,E2,B,A,B,C,F,G,G,H,B,A,B,C,I]
*>A	*>A	*>A	*>A	*>A
*clefF4	*	*clefG2	*	*
*k[b-e-a-]	*	*k[b-e-a-]	*	*
*c:	*	*c:	*	*
*M2/4	*	*M2/4	*	*
*	*	*MM60	*	*
8r	.	8g/	.	p
!LO:TX:t=[segno]:problem=znak segno na kresce taktowej	!	!LO:TX:t=[segno]:problem=znak segno na kresce taktowej	!	!
=1||	=1||	=1||	=1||	=1||
*>B	*>B	*>B	*>B	*>B
8E-L 8C\	3 5	8cc\L	2	.
8G\J	.	8cc\	.	.
8FL 8BBn\	2 5	8dd\	.	.
8G\J	.	8gg\J	.	.
=2	=2	=2	=2	=2
.	.	8qff/	.	.
8E-L 8C\	.	8ee-\L	.	.
8G\J	.	16dd\L	.	.
.	.	16ee-\JJ	.	.
8GL 8BBn\	.	8dd\L	.	.
8G\J	.	8g\J	1	.
=3	=3	=3	=3	=3
8E-L 8C\	.	8cc\L	.	.
8G\J	.	8cc\J	.	.
8GL 8BB- 8GG\	.	8dd\L	.	f
8G\J	.	16dd\L	.	.
.	.	16ee-\JJ	.	.
=4	=4	=4	=4	=4
8E-L 8C\	.	4cc\	.	.
8G\	.	.	.	.
8E-J 8C\	.	8r	.	.
=:|!	=:|!	=:|!	=:|!	=:|!
*>C	*>C	*>C	*>C	*>C
8r	.	8b-X\	2	f
=5	=5	=5	=5	=5
8GL 8E-\	.	8gg\L	5	.
8B-\	.	8gg\	2	.
8G 8E-\	.	8gg\	.	.
8B-\J	.	8ccc\J	.	.
=6	=6	=6	=6	=6
.	.	8qbb-/	.	.
8FL 8D\	.	8aa-\L	.	.
8B-\	.	16gg\L	.	.
.	.	16aa-\JJ	.	.
8F 8D\	.	8ff\L	.	.
8B-\J	.	8bb-\J	.	.
=7	=7	=7	=7	=7
.	.	8qaa-/	.	.
8GL 8E-\	.	8gg\L	.	.
8B-\	.	16ff\L	.	.
.	.	16ee-\JJ	3	.
8G 8E-\	.	8dd\L	.	.
8B-\J	.	8ee-\J	.	.
=8	=8	=8	=8	=8
!	!	!LO:TX:b:i:t=ten	!	!
8GL 8D\	.	4.gg\	.	.
8B-\	.	.	.	.
8G 8D\	.	.	.	.
8B-\J	.	8g/	.	fz
=9	=9	=9	=9	=9
8E-L 8C\	.	8cc\L	2	.
8G\J	.	8cc\	.	.
8FL 8BBn\	.	8dd\	.	.
8G\J	.	8gg\J	.	.
!!LO:LB:g=original
=10	=10	=10	=10	=10
.	.	8qff/	.	.
8E-L 8C\	.	8ee-\L	.	.
8G\J	.	16dd\L	.	.
.	.	16ee-\JJ	.	.
8FL 8BBn\	.	8dd/L	.	.
8G\J	.	8g/J	.	.
=11	=11	=11	=11	=11
*rep	*	*	*	*
8E-L 8C\	.	8cc\L	.	.
8G\J	.	8cc\J	.	.
8FL 8BBn\	.	8dd\L	.	.
8G\J	.	16dd\L	.	.
.	.	16ee-\JJ	.	.
*Xrep	*	*	*	*
=12	=12	=12	=12	=12
8E-L 8C\	.	4cc\	.	.
8G\	.	.	.	.
8E-J 8C\	.	8r	.	.
8r	.	8b-X\	2	.
=13	=13	=13	=13	=13
8GL 8E-\	.	8gg\L	5	.
8B-\	.	8gg\	.	.
8G 8En\	.	8gg\	.	.
8c\J	.	8ccc\J	.	.
=14	=14	=14	=14	=14
.	.	8qbb-/	.	.
8A-L 8F\	.	8aa-\L	.	.
8c\J	.	16gg\L	.	.
.	.	16aa-\JJ	.	.
8FL 8D\	.	8ff\L	.	.
8B-\J	.	8bb-\J	.	.
=15	=15	=15	=15	=15
.	.	8qaa-/	.	.
8GL 8E-\	.	8gg\L	.	.
8B-\J	.	16ff\L	.	.
.	.	16ee-\JJ	3	.
8F#X\L	.	8dd\L	.	.
8An\J	.	8ee-\J	.	.
=16	=16	=16	=16	=16
.	.	8qgg/	.	.
8FnL 8BBn\	.	4.ff\	.	.
8A-X\J	.	.	.	.
8FL 8BB\	.	.	.	.
8A-\J	.	16ee-\LL	.	.
.	.	16dd\JJ	.	.
=17	=17	=17	=17	=17
!	!	!	!	!LO:DY:rj
8E-L 8C\	.	8cc\L	.	p
8G\	.	8cc\	.	.
8F 8BBn\	.	8dd\	.	.
8G\J	.	8gg\J	.	.
=18	=18	=18	=18	=18
*rep	*	*	*	*
.	.	8qff/	.	.
8E-L 8C\	.	8ee-\L	.	.
8F\	.	16dd\L	.	.
.	.	16ee-\JJ	.	.
8F 8BBn\	.	8dd/L	.	.
8G\J	.	8g/J	.	.
*Xrep	*	*	*	*
=19	=19	=19	=19	=19
*rep	*	*	*	*
8E-L 8C\	.	8cc\L	.	.
8G\	.	8cc\J	.	.
8F 8BBn\	.	8dd\L	.	.
8G\J	.	16dd\L	.	.
.	.	16ee-\JJ	.	.
*Xrep	*	*	*	*
=20	=20	=20	=20	=20
8E-L 8C\	.	4cc\	.	.
8G\	.	.	.	.
!LO:TX:t=P:problem=fermata na kresce taktowej	!	!LO:TX:t=P:problem=fermata na kresce taktowej	!	!
8E-J 8C\;	.	8r;	.	.
!!LO:LB:g=original
=||	=||	=||	=||	=||
*>D	*>D	*>D	*>D	*>D
*k[]	*	*k[]	*	*
!LO:TX:t=P:problem=znaki BBn AAn En	!	!LO:TX:t=P:problem=znaki bn an een	!	!
8r	.	8r	.	p
=21	=21	=21	=21	=21
*	*	*ped	*	*
!	!	!LO:TX:a:i:t=Magiore	!	!
8C 8CC/	.	8ee\L	.	.
8G\L	.	8ee\	.	.
8e 8c\	.	8ee\	.	.
8G\J	.	8ee\J	.	.
=22	=22	=22	=22	=22
.	.	8qff/	.	.
*tremolo	*	*	*	*
*2\right	*	*	*	*
8eL 8c\	.	8ee\L	.	.
8G\	.	16dd\L	.	.
.	.	16ee\JJ	.	.
8e 8c\	.	8cc\L	.	.
8G\J	.	8ee\J	.	.
=23	=23	=23	=23	=23
8fL 8d 8B\	.	8gg\L	.	.
8G\	.	8gg\	.	.
8f 8d 8B\	.	8gg\	.	.
8G\J	.	8gg\J	.	.
=24	=24	=24	=24	=24
*rep	*	*2\right	*	*
8fL 8d 8B\	.	2dd\	.	.
8G\	.	.	.	.
8f 8d 8B\	.	.	.	.
8G\J	.	.	.	.
*Xrep	*	*	*	*
*Xtremolo	*	*	*	*
=25	=25	=25	=25	=25
8C/	5	8ee\L	.	.
8G\L	5	8ee\	.	.
8e 8c\	.	8ee\	.	.
*	*	*Xped	*	*
8G\J	.	8ee\J	.	.
=26	=26	=26	=26	=26
.	.	8qff/	.	.
*tremolo	*	*	*	*
8eL 8c\	.	8ee\L	.	.
8G\	.	16dd\L	.	.
.	.	16ee\JJ	.	.
8e 8c\	.	8cc\L	.	.
8G\J	.	8ee\J	.	.
*Xtremolo	*	*	*	*
=27	=27	=27	=27	=27
8D 8DD/	.	8dd\L	.	.
*	*	*ped	*	*
8D\L	.	8dd\	.	.
8c 8A 8F#X\	.	8dd\	.	.
8D\J	.	8dd\J	.	.
=28	=28	=28	=28	=28
!!LO:TX:a:t=1 volta
*>D1	*>D1	*>D1	*>D1	*>D1
4B 4G\	.	4g/	.	.
4r	.	16a\LL	.	.
.	.	16b\	.	.
*	*	*	*below	*
.	.	16cc\	1	.
.	.	16dd\JJ	2	.
=29:|!	=29:|!	=29:|!	=29:|!	=29:|!
!!LO:TX:a:t=2da volta
*>D2	*>D2	*>D2	*>D2	*>D2
*	*	*Xped	*	*
4B 4G\	.	8.g/L	.	.
.	.	16a/Jk	.	.
4r	.	16b\LL	.	.
.	.	16cc#X\	.	.
*	*	*	*above	*
.	.	16dd\	1	.
.	.	16ee\JJ	2	.
=30!|:	=30!|:	=30!|:	=30!|:	=30!|:
*>E	*>E	*>E	*>E	*>E
*	*	*ped	*	*
8D 8DD/	.	8ff\L	3	.
8A\L	.	8ff\	.	.
8f 8d\	.	8ff\	.	.
8A\J	.	8ff\J	.	.
=31	=31	=31	=31	=31
.	.	8qff/	.	.
*clefG2	*	*	*	*
*tremolo	*	*	*	*
8gL 8c#X/	.	8ee\L	.	.
8A/	.	16dd#X\L	.	.
.	.	16ee\JJ	.	.
*	*	*Xped	*	*
8g 8c#/	.	8ff\L	.	.
8A/J	.	8ee\J	.	.
=32	=32	=32	=32	=32
8fL 8d/	.	8dd\L	.	.
8A/	.	8dd\	.	.
8f 8d/	.	8dd\	.	.
8A/J	.	8dd\J	.	.
*Xtremolo	*	*	*	*
!!LO:LB:g=original
=33	=33	=33	=33	=33
*oclefF3	*	*	*	*
*clefF4	*	*	*	*
8BB/	.	4.gg\	.	.
8G\L	.	.	.	.
8f> 8d>\	.	.	.	.
8G\J	.	8ff\	.	.
=34	=34	=34	=34	=34
8C/	.	8ee\L	.	.
8G\L	.	8ee\J	.	.
8e 8c\	.	16ff\LL	.	.
.	.	16ee\	.	.
8G\J	.	16dd\	.	.
.	.	16ee\JJ	.	.
=35	=35	=35	=35	=35
!	!	!LO:TUP:a	!	!
8FF/	.	12a\L	.	.
.	.	12b\	.	.
8F\L	.	.	.	.
.	.	12cc\J	.	.
8d 8A\	.	8ee\L	.	.
8F\J	.	8dd\J	.	.
=36	=36	=36	=36	=36
8GG/	.	2cc\	.	.
8G\L	.	.	.	.
8e 8c\	.	.	.	.
8G\J	.	.	.	.
=37	=37	=37	=37	=37
*	*	*Xtuplet	*	*
4d 4B\	.	12b\L	.	.
.	.	12g\	.	.
.	.	12a\J	.	.
4r	.	12b\L	.	.
.	.	12cc\	1	.
.	.	12dd\J	2	.
=38	=38	=38	=38	=38
*	*	*ped	*	*
8C 8CC/	.	8ee\L	.	.
8G\L	.	8ee\	.	.
8e 8c\	.	8ee\	.	.
8G\J	.	8ee\J	.	.
=39	=39	=39	=39	=39
.	.	8qff/	.	.
8eL 8c\	.	8ee\L	.	.
8G\J	.	16dd\L	.	.
.	.	16ee\JJ	.	.
*rep	*	*	*	*
8eL 8c\	.	8cc\L	.	.
8G\J	.	8ee\J	.	.
*Xrep	*	*	*	*
=40	=40	=40	=40	=40
*tremolo	*	*	*	*
!LO:TX:a:t=P:problem=złe wyświetlanie wartości rytmicznej tremolo	!	!	!	!
!LO:N:TREM:vis=4.	!	!	!	!
12fL 12d 12B\	.	8gg\L	.	.
12G\	.	.	.	.
.	.	8gg\	.	.
12f 12d 12B\	.	.	.	.
!LO:TX:a:t=P:problem=złe wyświetlanie wartości rytmicznej tremolo	!	!	!	!
!LO:N:TREM:vis=4.	!	!	!	!
12G\	.	8gg\	.	.
12f 12d 12B\	.	.	.	.
.	.	8gg\J	.	.
12G\J	.	.	.	.
=41	=41	=41	=41	=41
*rep	*	*	*	*
!LO:TX:a:t=P:problem=złe wyświetlanie wartości rytmicznej tremolo	!	!	!	!
!LO:N:TREM:vis=4.	!	!	!	!
12fL 12d 12B\	.	2dd\	.	.
12G\	.	.	.	.
12f 12d 12B\	.	.	.	.
!LO:TX:a:t=P:problem=złe wyświetlanie wartości rytmicznej tremolo	!	!	!	!
!LO:N:TREM:vis=4.	!	!	!	!
12G\	.	.	.	.
12f 12d 12B\	.	.	.	.
12G\J	.	.	.	.
*Xrep	*	*	*	*
*Xtremolo	*	*	*	*
=42	=42	=42	=42	=42
8cL 8C\	.	8ee\L	.	.
8eJ 8c\	.	8ee\	.	.
8G#XL 8GG#X/	.	8ee\	.	.
8BJ 8G#/	.	8ee\J	.	.
=43	=43	=43	=43	=43
.	.	8qff/	.	.
8AL 8AA\	.	8ee\L	.	.
8cJ 8A\	.	16dd\L	.	.
.	.	16ee\JJ	.	.
8FL 8FF/	.	12gg\L	.	.
.	.	12ff\	.	.
8AJ 8F/	.	.	.	.
.	.	12ee\J	3	.
=44	=44	=44	=44	=44
8G 8GG/	.	4cc\	.	.
8e 8c 8G\	.	.	.	.
8GL 8GG/	.	8bL 8f 8d/	.	.
8BJ 8G/	.	8g/J	.	.
!!LO:PB:g=original
=45||	=45||	=45||	=45||	=45||
!!LO:TX:a:t=1 volta	!
*>E1	*>E1	*>E1	*>E1	*>E1
4C/	.	8ccL 8e/	.	.
.	.	16g/L	.	.
.	.	16a/JJ	.	.
4r	.	16b\LL	.	.
.	.	16cc#X\	.	.
.	.	16dd\	.	.
.	.	16ee\JJ	.	.
=46:|!	=46:|!	=46:|!	=46:|!	=46:|!
!!LO:TX:a:t=2da volta
*>E2	*>E2	*>E2	*>E2	*>E2
4C/	.	4cc 4e/	.	.
4r	.	8r	.	.
!	!	!LO:TX:b:i:t=d` al Segno	!	!
.	.	8g/	.	.
!LO:TX:b:t=[segno]:problem=znak segno na kresce taktowej	!	!LO:TX:t=[segno]:problem=znak segno na kresce taktowej	!	!
=||	=||	=||	=||	=||
*>F	*>F	*>F	*>F	*>F
*oclefF3	*	*	*	*
*clefF4	*	*clefG2	*	*
*k[b-a-e-d-]	*	*k[d-a-e-b-]	*	*
8r	.	8ee-\	.	.
=47	=47	=47	=47	=47
*	*below	*	*	*
8AA-/	5	16ee-\LL	.	.
.	.	16ff\	.	.
8e-L 8c 8A-\	1 2 4	16ee-\	.	.
.	.	16ddn\JJ	.	.
8e-J 8c 8A-\	.	16ee-\LL	.	.
.	.	16cc\	.	.
8r	.	16dd-X\	.	.
.	.	16ee-\JJ	.	.
=48	=48	=48	=48	=48
8D-\L	5	16ff\LL	1	.
.	.	16gg\	.	.
8f 8d- 8A-\	1 2 4	16aa-\	.	.
.	.	16gg\JJ	.	.
8fJ 8d- 8A-\	.	16ff\LL	.	.
.	.	16ee-\	3	.
8r	.	16dd-\	.	.
.	.	16cc\JJ	.	.
=49	=49	=49	=49	=49
8E-\L	.	16b-\LL	.	.
.	.	16cc\	.	.
8g 8d- 8B-\	.	16b-\	.	.
.	.	16an\JJ	.	.
8gJ 8d- 8B-\	.	16b-\LL	.	.
.	.	16cc\	.	.
8r	.	16dd-\	.	.
.	.	16b-\JJ	.	.
=50	=50	=50	=50	=50
8A-\L	.	16a-\LL	.	.
.	.	16g\	.	.
8e- 8c\	.	16b-\	.	.
.	.	16a-\JJ	.	.
8e-J 8c\	.	16dd-\LL	4	.
.	.	16cc\	1	.
8r	.	16ff\	4	.
.	.	16ee-\JJ	3	.
=51	=51	=51	=51	=51
8BB-\L	.	16dd-\LL	2	.
.	.	16ee-\	3	.
8dnJ 8B- 8A-\	.	16ff\	1	.
.	.	16gg\JJ	2	.
!!LO:LB:g=original
8d 8B- 8A-\	.	16bb-\LL	4	.
.	.	16aa-\	3	.
8r	.	16ff\	2	.
!	!	!LO:SIC:v:s=16ddn\JJ	!	!
.	.	16dd-\JJ	1	.
=52	=52	=52	=52	=52
8E-\L	.	16ee-\LL	2	.
.	.	16gg\	1	.
8e- 8B- 8G\	.	16bb-\	2	.
.	.	16eee-\JJ	4	.
8e-J 8B- 8G\	.	16ggg\LL	5	.
!	!	!LO:TX:t=P:problem=pokreślone palcowanie	!	!
.	.	16fff\	.	.
8r	.	16eee-\	.	.
.	.	16dddn\JJ	.	.
=53	=53	=53	=53	=53
!LO:TX:a:t=P:problem=mixed beam	!	!	!	!
8AA-/L	.	16ccc\LL	.	.
.	.	16bb-\	4	.
8cJ 8A-\	.	16aa-\	.	.
.	.	16gg\JJ	.	.
!LO:TX:a:t=P:problem=mixed beam	!	!	!	!
8BB-/L	.	16ff\LL	.	.
.	.	16ee-\	3	.
8dnJ 8B-\	.	16ddn\	.	.
.	.	16ff\JJ	.	.
=54	=54	=54	=54	=54
8E-\L	.	4ee-\	.	.
8e- 8B- 8G\	.	.	.	.
8E-\J	.	8r	.	.
=||	=||	=||	=||	=||
8r	.	8ee-\	.	.
=55!|:	=55!|:	=55!|:	=55!|:	=55!|:
*>G	*>G	*>G	*>G	*>G
8E-\L	.	16ee-\LL	.	.
.	.	16ddn\	.	.
8e-J 8d- 8B-\	.	16ee-\	.	.
.	.	16ff\JJ	.	.
*rep	*	*	*	*
8E-\L	.	16gg\LL	.	.
.	.	16aa-\	.	.
8e-J 8d- 8B-\	.	16bb-\	.	.
.	.	16gg\JJ	.	.
*Xrep	*	*	*	*
=56	=56	=56	=56	=56
8E-\L	.	16aa-\LL	.	.
.	.	16gg\	.	.
8e-J 8c 8A-\	.	16aa-\	.	.
.	.	16bb-\JJ	.	.
*rep	*	*	*	*
8E-\L	.	16ccc\LL	.	.
.	.	16gg\	.	.
8e-J 8c 8A-\	.	16aa-\	.	.
.	.	16ff\JJ	.	.
*Xrep	*	*	*	*
=57:|!	=57:|!	=57:|!	=57:|!	=57:|!
*>H	*>H	*>H	*>H	*>H
8E-\L	.	16ee-\LL	.	.
.	.	16ddn\	.	.
8e-J 8d- 8B-\	.	16ee-\	.	.
.	.	16ff\JJ	.	.
8En\L	.	16gg\LL	.	.
.	.	16aa-\	.	.
8enJ 8d-X 8B-\	.	16bb-\	.	.
.	.	16gg\JJ	.	.
=58	=58	=58	=58	=58
8F\L	.	16aa-\LL	.	.
.	.	16gg\	.	.
8fJ 8c 8A-\	.	16aa-\	.	.
.	.	16ccc\JJ	1	.
8F#X\L	.	16eee-\LL	.	.
.	.	16dddn\	.	.
8f#XJ 8c 8An\	.	16eee-\	.	.
.	.	16ccc\JJ	.	.
!!LO:LB:g=original
=59	=59	=59	=59	=59
*^	*	*	*	*
!	!LO:N:vis=2:problem=z chorągiewką	!	!	!	!
2G/	8G\	.	16bbn\LL	2	.
.	.	.	16gg\	.	.
.	4dn 4Bn 4G\	.	16bbn\	.	.
.	.	.	16dddn\JJ	.	.
!	!	!	!	!	!LO:DY:rj
.	.	.	16ggg\LL	.	ff
.	.	.	16gg\	.	.
.	8d 8B\	.	16ggg\	.	.
.	.	.	16gg\JJ	.	.
=60	=60	=60	=60	=60	=60
!	!LO:N:vis=2:problem=z chorągiewką	!	!	!	!
2A-X/	8A-X\	.	16fff\LL	.	.
.	.	.	16eee-\	.	.
.	4fn 4c\	.	16dddn\	.	.
.	.	.	16ccc\JJ	.	.
.	.	.	16bb-\LL	.	.
.	.	.	16aa-X\	.	.
.	8f 8c\	.	16gg\	.	.
.	.	.	16ff#X\JJ	.	.
=61	=61	=61	=61	=61	=61
!	!LO:N:vis=2:problem=z chorągiewką	!	!	!	!
2G/	8G\	.	16r	.	.
.	.	.	16gg\LL	1	.
.	4dn 4Bn\	.	16bbn\	2	.
.	.	.	16dddn\JJ	3	.
.	.	.	16ggg\LL	.	.
.	.	.	16gg\	.	.
.	8d 8B\	.	16ggg\	.	.
.	.	.	16gg\JJ	.	.
=62	=62	=62	=62	=62	=62
!	!LO:N:vis=2:problem=z chorągiewką	!	!	!	!
2A-X/	8A-X\	.	16fff\LL	.	.
.	.	.	16eee-\	.	.
.	4f 4c\	.	16dddn\	.	.
.	.	.	16ccc\JJ	.	.
.	.	.	16bb-\LL	3	.
.	.	.	16aa-\	.	.
.	8f 8c\	.	16gg\	.	.
.	.	.	16ff#X\JJ	.	.
*v	*v	*	*	*	*
=63	=63	=63	=63	=63
4dn 4B- 4G\	.	16r	.	.
.	.	16gg\LL	.	.
.	.	16bbn\	.	.
.	.	16dddn\JJ	.	.
4r	.	16ggg\LL	.	.
.	.	16ddd\	.	.
.	.	16bb\	.	.
.	.	16gg\JJ	.	.
=64	=64	=64	=64	=64
2r	.	16dddn\LL	.	.
.	.	16bbn\	.	.
.	.	16gg\	.	.
.	.	16dd-\JJ	.	.
.	.	16bb\LL	.	.
.	.	16gg\	.	.
.	.	16dd-\	.	.
.	.	16b-\JJ	.	.
=65	=65	=65	=65	=65
!	!	!	!	!LO:HP:t=decres
2r	.	16gg\LL	.	>
.	.	16dd-\	.	.
.	.	16bn\	.	.
.	.	16g\JJ	.	.
.	.	16f#X\LL	.	.
.	.	16g\	.	.
.	.	16a-X\	.	.
.	.	16g\JJ	.	.
!!LO:LB:g=original
=66	=66	=66	=66	=66
2r	.	16a-\LL	2	.
.	.	16g\	1	.
.	.	16an\	2	.
!	!	!LO:TX:b:i:t=rallent	!	!
.	.	16g\JJ	1	.
.	.	16b-\LL	3	.
.	.	16g\	.	.
.	.	16bn\	.	.
!	!	!LO:TX:b:i:t=d`al Segno Coda	!	!
.	.	16g\JJ	.	.
!LO:TX:b:t=[segno]:problem=znak segno na kresce taktowej	!	!LO:TX:t=[segno]:problem=znak segno na kresce taktowej	!	!
=||	=||	=||	=||	=||
*>I	*>I	*>I	*>I	*>I
*oclefF3	*	*	*	*
*clefF4	*	*clefG2	*	*
*k[b-e-a-]	*	*k[b-e-a-]	*	*
!LO:TX:t=P:problem=znaki BB- E- A-	!	!	!	!
8r	.	8ccc\	5	f
=67	=67	=67	=67	=67
4F 4FF/	.	4aa- 4ff 4cc\	4	.
4G 4GG/	.	8ggL 8dd 8bn/	5	.
.	.	8ff/J	1 3	.
=68	=68	=68	=68	=68
4A- 4AA-/	.	4ee- 4cc\	.	.
4r	.	8r	.	.
.	.	8ccc\	5	.
=69	=69	=69	=69	=69
4F 4FF/	.	4aa- 4ff 4cc\	4	.
4G: 4D: 4BBn: 4FF:/	.	4gg: 4dd: 4bn: 4g:\	.	.
=70	=70	=70	=70	=70
2C 2CC/	.	2c/	2	.
==	==	==	==	==
*-	*-	*-	*-	*-
!!!system-decoration: {s1,s2}
!!!RDF**kern: > = above
!!!ENC: Tomasz Grochalski
!!!END: 2020-06-17
!!!ENC: Marta Lawrence
!!!END: 2022-01-06
!!!YEC: Copyright 2022 Narodowy Instytut Fryderyka Chopina (https://polishscores.org)
!!!YEM: Licence CC BY 4.0 (https://creativecommons.org/licenses/by/4.0)
